X:1
T:Calling for Me
T:Calling for Me
T:William M. Robison
T:William M. Robison, 1909
T:Public Domain Courtesy of the Cyber Hymnal™
T:Public Domain Courtesy of the Cyber Hymnal™
C:William M. Robison
Z:Public Domain
Z:Courtesy of the Cyber Hymnal™
%%score ( 1 2 ) ( 3 4 )
L:1/8
Q:1/4=93
M:4/4
K:G
V:1 treble 
V:2 treble 
V:3 bass 
V:4 bass 
V:1
 !fermata![Bd]>[Ac] | [GB]>[GB] [GB]>[GA] G2 [DG]>[DG] | [EA]>[EG] [EG]>[CE] [B,D]2 [B,D]>[B,D] | %3
w: 1.~I have|watched the sheep a- stray, As it|wan- dered day by day, On the|
w: 2.~I have|watched the wo- man search For the|gem of price- less worth, For the|
w: 3.~I have|watched the boy de- part, With his|proud and anx- ious heart, As he|
w: 4.~Now I|see him as he goes, Clad in|worn and tat- tered clothes, And for-|
 [DG]2 [DG]2 G>[GA] [GB]>G | [FA]6 [Fd]>[Ac] | [GB]>[GB] [GB]>[GA] G2 [DG]>[DG] | %6
w: moun- tain heard its fee- ble|cry; Oh, the|Shep- herd’s gen- tle call, How it|
w: piece of sil- ver she had|lost; With her|light and broom in hand, On she|
w: left his fa- ther’s house to|roam; Then I’ve|seen him sitt- ing down, With the|
w: sak- en by the world so|gay; With a|brok- en, bleed- ing heart, “For my|
 [EA]>[EG] [EG]>[CE] [B,D]2 [DG]>[DA] | [GB]2 [DG]2 [GB]2 [FA]2 | G6 ||"^Refrain" G2 | B6 Gc | %11
w: comes to one and all; Tell me|why, then, will you|die?|||
w: goes in ev- ery land, Search- ing|for that which was|lost.|He’s|call- ing for|
w: swine up- on the ground, Far a-|way from that old|home.|||
w: Fa- ther’s home I’ll start,” Now I|hear him faint- ly|say.|||
 B6 [GB]2 G2 | A6 [DF][Fe] | d6 z2 | e6 [Fd][Ac] | B6 G2 | [FA][FA][FA][Ac] [GB]2 [FA]2 | G6 |] %18
w: |||||||
w: me, He’s call-|ing for me,|Call-|ing for me,||||
w: |||||||
w: |||||||
V:2
 x2 | x4 G2 x2 | x8 | x4 G3/2 x/ G/ x3/2 | x8 | x4 G2 x2 | x8 | x8 | G6 || G2 | (GGG>G G2) x2 | %11
 (GGG>G G2) x4 | (FFF>F F2) x2 | (GGG>G G2) x2 | (GGG>G G2) x2 | (GGG>G G2) G2 | x8 | (G2 E2 D2) |] %18
V:3
 [G,D]>[G,D] | [G,D]>[G,D] [G,D]>[G,C] [G,B,]2 [G,B,]>[G,B,] | [C,C]>[C,C] [C,C]>[E,G,] G,2 G,>G, | %3
w: ||* * * * He’s call- ing|
 [G,B,]2 [G,B,]2 [G,B,]>[G,C] [G,D]>[G,B,] | [D,C]6 [D,D]>[F,D] | %5
w: ||
 [G,D]>[G,D] [G,D]>[G,C] [G,B,]2 [G,B,]>[G,B,] | [C,C]>[C,C] [C,C]>[E,G,] G,2 [G,B,]>[G,C] | %7
w: |* * * * now * *|
 [G,D]2 [G,B,]2 [D,D]2 [D,C]2 | [G,,G,B,]6 || [G,B,]2 | [G,D][G,D] [G,D]>[G,D] [G,D]2 z2 | %11
w: ||for|me, Call- ing now for|
 [G,D][G,D] [G,D]>[G,D] [G,D]2 [G,B,]2 x2 | [D,D][D,D] [D,D]>[D,D] [D,D]2 [D,D][D,C] | %13
w: me, He’s call- ing now for|me, He is call- ing now for|
 [G,B,][G,B,] [G,B,]>[G,B,] [G,B,]2 z2 | [C,C][C,C] [C,C]>[C,C] [C,B,]2 (3(D,E,)F, | %15
w: me, Call- ing now for|me, He is call- ing now * for|
 [G,D][G,D] [G,D]>[G,D] [G,D]2 [G,B,]2 | [D,D][D,D][D,D][D,D] [D,D]2 [D,C]2 | B,2 C2 B,2 |] %18
w: me, My Sav- ior’s call- ing|now for me, for me. *||
V:4
 x2 | x8 | x4 G,2 G,>G, | x8 | x8 | x8 | x4 G,2 x2 | x8 | x6 || x2 | x8 | x10 | x8 | x8 | x8 | x8 | %16
 x8 | G,,6 |] %18

